src/assets/icons/edit_icon.svg

<svg width="19" height="18" viewBox="0 0 19 18" fill="none" xmlns="http://www.w3.org/2000/svg">
<path d="M13.7432 0.822266C14.0706 0.822266 14.3863 0.939844 14.6211 1.15234L14.6221 1.15332L17.8828 4.1377C18.1166 4.35167 18.2499 4.64302 18.25 4.94922C18.25 5.21724 18.148 5.4743 17.9658 5.67773L17.8828 5.76172L6.33789 16.2637L6.31836 16.2812L6.29102 16.2871L1.68555 17.248L1.6748 17.251V17.25C1.58929 17.2579 1.50251 17.2579 1.41699 17.25V17.249C1.23623 17.2468 1.05792 17.2097 0.894531 17.1377C0.728345 17.0644 0.581312 16.9578 0.464844 16.8252C0.348361 16.6926 0.265516 16.537 0.222656 16.3701C0.179869 16.2033 0.177575 16.0297 0.217773 15.8623L0.21875 15.8613L1.27441 11.7129L1.28125 11.6846L1.30371 11.6641L12.8652 1.15234C13.1 0.939807 13.4157 0.822288 13.7432 0.822266ZM2.47168 12.3018L1.53418 15.9746L5.66895 15.1855L14.2158 7.4375L11.0312 4.53809L2.47168 12.3018ZM11.9248 3.66992L15.1084 6.56836L16.8408 4.95508L13.709 2.05566L11.9248 3.66992Z" fill="black" stroke="black" stroke-width="0.2"/>
</svg>

<svg xmlns="http://www.w3.org/2000/svg" width="19" height="18" fill="none"><path fill="#000" stroke="#000" stroke-width=".2" d="M13.743.822c.328 0 .643.118.878.33l.001.001 3.26 2.985a1.1 1.1 0 0 1 .368.811c0 .268-.102.525-.284.729l-.083.084L6.338 16.264l-.02.017-.027.006-4.605.961-.011.003v-.001a1.4 1.4 0 0 1-.258 0v-.001c-.18-.002-.36-.04-.522-.111a1.2 1.2 0 0 1-.43-.313 1.1 1.1 0 0 1-.242-.455 1.05 1.05 0 0 1-.005-.508l1.056-4.15.007-.027.023-.02L12.865 1.151c.235-.212.55-.33.878-.33ZM2.472 12.302l-.938 3.673 4.135-.79 8.547-7.748-3.185-2.899zm9.453-8.632 3.183 2.898 1.733-1.613-3.132-2.9z"/></svg>
